storage/app/icons/phosphoricons/light/align-top-light.svg

<svg xmlns="http://www.w3.org/2000/svg" fill="currentColor" viewBox="0 0 256 256"><path d="M222 40a6 6 0 0 1-6 6H40a6 6 0 0 1 0-12h176a6 6 0 0 1 6 6m-16 40v96a14 14 0 0 1-14 14h-40a14 14 0 0 1-14-14V80a14 14 0 0 1 14-14h40a14 14 0 0 1 14 14m-12 0a2 2 0 0 0-2-2h-40a2 2 0 0 0-2 2v96a2 2 0 0 0 2 2h40a2 2 0 0 0 2-2Zm-76 0v136a14 14 0 0 1-14 14H64a14 14 0 0 1-14-14V80a14 14 0 0 1 14-14h40a14 14 0 0 1 14 14m-12 0a2 2 0 0 0-2-2H64a2 2 0 0 0-2 2v136a2 2 0 0 0 2 2h40a2 2 0 0 0 2-2Z"/></svg>

<svg xmlns="http://www.w3.org/2000/svg" viewBox="0 0 256 256" fill="currentColor"><path d="M222,40a6,6,0,0,1-6,6H40a6,6,0,0,1,0-12H216A6,6,0,0,1,222,40ZM206,80v96a14,14,0,0,1-14,14H152a14,14,0,0,1-14-14V80a14,14,0,0,1,14-14h40A14,14,0,0,1,206,80Zm-12,0a2,2,0,0,0-2-2H152a2,2,0,0,0-2,2v96a2,2,0,0,0,2,2h40a2,2,0,0,0,2-2Zm-76,0V216a14,14,0,0,1-14,14H64a14,14,0,0,1-14-14V80A14,14,0,0,1,64,66h40A14,14,0,0,1,118,80Zm-12,0a2,2,0,0,0-2-2H64a2,2,0,0,0-2,2V216a2,2,0,0,0,2,2h40a2,2,0,0,0,2-2Z"/></svg>
